X:1
T:Title
%%score 1 2 3 4
L:1/8
M:4/4
K:C
V:1 treble nm="Part_1"
V:2 treble nm="Part_2"
V:3 bass nm="Part_3"
V:4 bass nm="Part_4"
V:1
 z ABc ddeB | ^cABc d2 dd | de/d/ ^c2 d4 | z8 | z8 | z cde ffgd | e^cde f2 fe | e4 d4 | z8 | z8 | %10
 z8 | z4 z2 AA | A2 B2 A3 A | B4 B2 dd | d2 e2 d3 d | e4 e4 | z c cd/e/ f2 f2 | z B Bc/d/ e2 e2 | %18
 z A AB/c/ d2 cB | B3 A A4 | z2 A2 A_B/A/ G2 | A4 cccc | c2 _BA G3 F | F4 z4 | z8 | z4 AAA_B | %26
 G2 GA G3 F | F4 z4 | c2 c2 z4 | z fff ff/f/ e2 | d4 z4 | z eee ee/e/ d2 | c2 d/c/ d/c/ B2 A2 | %33
 z2 _B/A/ B/A/ GG A/G/ A/G/ | FF G/F/ G/F/ E4 | D8 | z8 | z8 | z8 | z8 | z8 | FGAB cdec | %42
 fedc B3 A | A4 z4 | z2 ee dd/e/ c>B | B4 z d d>^c | dd z2 z e e>d | e2 e2 z ABc | dd d4 cB | %49
 B3 A A2 c2- | cc d2 e2 e2- | ee c2 d4 | z8 | z ddd edec | d3 c c4 | cccc A2 ^F2 | ^ffff d2 B2 | %57
 d2 e2 e3 d/c/ | B2 c2 c3 B | c8 | z2 A2 A3 B/c/ | A4 z2 c2 | c3 d/e/ c2 z c | ccde AAA^G | %64
 B3 B B4 |[M:6/2] E8 ^G8 B8 | ^G12 ^F4 E8 | z8 ^G8 B8 | ^G12 ^F4 E8 | A8 ^c8 e8 | ^c12 B4 A8 | %71
 z8 ^c8 e8 | ^c12 B4 A8 |[M:2/2] z ccc c_B/B/BA | A>A A2 z2 AA | AG/G/GF F>F F2 | z2 FF FE/E/ED | %77
 D>D D2 z2 eB | ^c2- c/A/B/c/ d4- | d2 d^c d4 | z2 AA B4 | z2 BB d4 | dddd e2 cd | e2 e2 e2 ^d2 | %84
 e8 |[M:6/2] z24 | E8 ^G8 B8 | ^G12 ^F4 E8 | z8 B8 B8 | E12 E4 E8 | A8 ^c8 e8 | ^c12 B4 A8 | %92
 z8 e8 e8 | ^c12 B4 A8 |[M:2/2] z eed ^cc/c/cB | B>BB>e d2 d^c | B8 | A8 | z8 | z8 | z8 | z8 | z8 | %103
 z8 | z8 | z8 | z8 | z8 | z8 | z8 | z8 | z8 | z8 | dddd ee/e/^cc | d2 d2 z B B/c/d/e/ | %115
 ^c2 c2 z A A/B/=c/d/ | B2 B2 z4 | dddd ee/e/^cc | d2 d2 z B B/c/d/e/ | c2 c2 z eee | %120
 dc/B/ c3 B/A/ B2- | BA/G/AA z ddd | cB A2 G2 z d | ee z G AA z A | Bc d4 cB | A4 G4 | %126
 dd/d/dd/d/ e2 e2 | ee/e/ee/e/ A>A A2 | z2 AA B2 dd | d2 ^c2 d4 | z8 | z2 AA dddA | B>B B2 z4 | %133
 z cde feed | d4 c4 |[M:6/2] z24 | z24 | z24 | z24 | z8 d8 d8 | ^c8 c4 A4 B4 c4 | d8 d8 z8 | z24 | %143
 z8 e8 e8 | c8 c4 A4 B4 c4 | d16 c8 | B24 | A24 | A24 | A24 | A24 | A8 f8 f8 | e8 e4 ^c4 d4 e4 | %153
 f8 f8 f8 | e8 e4 ^c4 d4 e4 | f12 d4 e4 f4 | g16 f8 | e24 |[M:2/2] d2 AA _BBGG | %159
 AA G/A/F/G/ EF E2 | D2 AA Bc d2 | d6 ^c2 | d8- | d8 |] %164
V:2
 z8 | z8 | z4 z D^FG | AAB^F ^GEFG | A2 AA AB/A/ ^G2 | AABc ddeB | ^cABc d2 dd | d2 ^c2 d4 | z8 | %9
 z8 | z8 | z4 z2 ^FF | ^F2 G2 G3 F | G4 G2 BB | B2 c2 c3 B | c4 c4 | z A AB/c/ d2 d2 | %17
 z G GA/B/ c2 c2 | z ^F FG/A/ B2 AA | A3 ^G A4 | z8 | z8 | z2 F2 F G/F/ E2 | F4 AAAA | A2 GF E3 D | %25
 D4 FFFG | E2 FF F3 E | F4 z4 | A2 A2 z4 | z ddd dd/d/ c2 | B4 z4 | z ccc cc/c/ B2 | %32
 A2 B/A/ B/A/ ^G2 A2 | F/E/ F/E/ DD E/D/ E/D/ ^CC | D3 D D3 (^C | D8) | z8 | z8 | z8 | z8 | z8 | %41
 DEFG ABcA | dcBA A3 ^G | A2 cc _BB/c/ A>G | G4 z G G>^F | GGBB AA/B/ G>^F | ^FA A>^G A2 A2 | %47
 z ^GAB c2 c2 | A2 ^G^F G2 A2- | A2 ^G2 A2 A2- | AA B2 ^G2 c2- | cc ^F2 Gddd | BABG c4- | %53
 c2 B2 c4 | z4 EEFG | A2 A2 AAAA | ^F2 D2 dddd | B2 G2 G2 c2 | d2 e/d/e/c/ d4 | c8 | z8 | z8 | z8 | %63
 z8 | z8 |[M:6/2] z24 | z24 | z24 | z24 | z24 | z24 | z24 | z24 |[M:2/2] z8 | z8 | z8 | z8 | z8 | %78
 z8 | z8 | z2 ^FF ^D4 | z2 ^FF B4 | BBBB c2 G^F | E2 AG ^F4 | E8 |[M:6/2] E8 ^G8 B8 | ^G12 ^F4 E8 | %87
 z8 B8 B8 | ^G12 ^F4 E8 | A8 ^c8 e8 | ^c12 B4 A8 | z8 e8 e8 | ^c12 B4 A8 | z24 | %94
[M:2/2] z ^ccB AA/A/A^G | ^G>GG>E ^F2 AA | A6 ^G2 | A8 | z8 | z8 | z8 | z8 | z8 | z8 | z8 | z8 | %106
 z8 | z8 | z8 | z8 | z8 | z8 | z8 | z8 | AAAA BB/B/^GG | A2 A2 z ^F F/G/A/B/ | G2 G2 z A A/B/c/d/ | %117
 B2 B2 z4 | z A A/B/c/d/ B2 B2 | z ccc B3 A/G/ | A3 G/F/ G3 ^F/E/ | ^F2 F2 z DDD | EG ^F2 G2 z B | %123
 cc z E ^FF z F | GA B4 AG | G2 ^F2 G4 | BB/B/BB/B/ ^G2 G2 | ^GG/G/GG/G/ E>E E2 | z2 ^FF G2 AA | %129
 E4 D4 | z8 | z8 | z Bcd e2 e2 | z ABc dccc | c2 B2 c4 |[M:6/2] z24 | z24 | z8 G8 G8 | %138
 ^F8 F4 D4 E4 F4 | G16 G8 | z24 | z8 d8 d8 | B8 B4 G4 A4 B4 | c16 c8 | A24 | F8 A16- | A16 ^G8 | %147
 A24 | E24 | F24 | E24 | D8 d8 d8 | ^c8 c4 A4 B4 c4 | d8 d8 d8 | ^c8 c4 A4 B4 c4 | d12 d4 c4 d4 | %156
 (B8 ^c8) d8 | d16 ^c8 |[M:2/2] d2 ^FF GGEE | FF E/F/D/E/ ^CD D>C | D2 ^FF G=F ED | E8 | D8- | %163
 D8 |] %164
V:3
 z8 | z8 | z8 | z8 | z8 | z8 | z8 | z A,A,A, ^F,E,/F,/ D,>C, | B,,G,G,G, E,D,/E,/ C,>B,, | %9
 A,,CCC A,G,/A,/ F,>E, | D,2 G,A,/_B,/ A,3 A,, | D,4 z2 D,D, | D,2 B,,2 C,2 D,2 | G,,4 G,,2 G,G, | %14
 G,2 E,2 F,2 G,2 | C,4 C,C, C,D,/E,/ | F,2 F,2 z D, D,E,/F,/ | G,2 G,2 z A,, A,,B,,/C,/ | %18
 D,2 D,2 z2 C,2 | D,2 E,2 A,,4 | z8 | z8 | z8 | z8 | z2 D,2 D, E,/D,/ ^C,2 | D,4 DDD_B, | %26
 C2 CA, _B,G, CC, | F,4 F,2 F,2 | z F,F,F, F,F,/F,/ E,2 | D,4 z4 | z G,G,G, G,G,/G,/ F,2 | E,4 z4 | %32
 F,/E,/ F,/E,/ (D,2 E,2) A,,2 | D,/C,/ D,/C,/ _B,,B,, C,/B,,/ C,/B,,/ A,,A,, | _B,,2 G,,2 A,,4 | %35
 D,,8 | D,E,F,G, A,B,CA, | DC_B,A, G,3 F, | F,2 A,A, G,G,/A,/ F,>E, | E,E,F,G, A,A, G,2- | %40
 G,2 F,E, E,3 D, | D,4 z4 | z8 | z8 | z8 | z2 G,G, F,F,/G,/ E,>D, | D,>C, B,,>A,, A,,A,, z2 | %47
 z E,F,G, A,2 G,2 | F,2 E,D, E,2 C,2 | D,2 E,2 A,,2 A,2- | A,A, F,2 E,2 C,2- | C,C, A,,2 G,,4 | %52
 z G,G,G, E,D,E,C, | G,3 G, C,4 | G,G,A,B, C2 C2 | A,A,A,A, ^F,2 D,2 | D,D,D,D, B,,2 G,,2 | %57
 G,2 E,2 C,2 E,,2 | G,,8 | C,8 | z8 | z8 | z8 | z8 | z8 |[M:6/2] z24 | z24 | z24 | z24 | z24 | %70
 z24 | z24 | z24 |[M:2/2] z8 | z8 | z8 | z8 | z8 | z8 | z8 | z2 D,D, B,,4 | z2 B,,B,, G,,4 | %82
 G,G,G,G, E,2 E,D, | C,2 A,,2 B,,4 | E,,8 |[M:6/2] E,8 E,8 E,8 | E,12 E,4 E,8 | z8 E,8 E,8 | %88
 E,12 E,4 E,8 | ^C,8 C,8 C,8 | A,,12 A,,4 A,,8 | z8 A,8 A,8 | A,12 A,4 A,8 | z24 | %94
[M:2/2] z A,,A,,B,, ^C,C,/C,/C,D, | E,>E,E,>^C, D,2 D,A,, | E,8 | A,,8 | z2 D,D, D,3 ^C, | %99
 D,2 D,E, F,2 E,D, | A,2 A,2 z A,A,A, | ^F,E,/F,/ D,E,/F,/ G,G, z2 | z G,G,G, E,D,/E,/ C,D,/E,/ | %103
 F,F, F,G,/A,/ _B,2 G,A, | D,4 z D,D,D, | B,,A,,/B,,/ G,,A,,/B,,/ C,C, A,,B,,/C,/ | %106
 D,D, B,,C,/D,/ E,2 D,E, | A,,4 z A,A,A, | ^F,E,/F,/ D,E,/F,/ G,G, E,F,/G,/ | %109
 A,A, B,,B,,/C,/ D,D, z2 | z B,,B,,B,, C,2 D,D, | G,,8 | G,G,G,G, A,A,/A,/^F,F, | %113
 G,2 G,2 z E, E,/F,/G,/A,/ | ^F,2 F,2 z4 | z E, E,/F,/G,/A,/ ^F,2 F,2 | G,G,G,G, A,A,/A,/F,F, | %117
 G,2 G,2 z E, E,/F,/G,/A,/ | ^F,2 F,2 z4 | z A,A,A, G,3 F,/E,/ | F,3 E,/D,/ E,3 D,/C,/ | %121
 D,2 D,2 z B,,B,,B,, | C,C, D,2 G,,2 z G, | C,C, z C, A,,A,, z A,, | G,,3 A,, B,,2 C,2 | D,4 G,,4 | %126
 G,G,/G,/G,G,/G,/ E,2 E,2 | E,E,/E,/E,E,/E,/ ^C,>C, C,2 | z2 D,C, B,,2 ^F,,G,, | A,,4 D,,4 | %130
 z2 D,D, A,A,A,E, | ^F,>F, F,2 z D,E,F, | G,2 G,2 z E,^F,^G, | A,2 A,2 z D,E,F, | G,4 C,4 | %135
[M:6/2] z8 C,8 C,8 | B,,8 B,,4 G,,4 A,,4 B,,4 | C,8 C,8 z8 | z24 | z24 | A,24 | ^F,24 | G,24 | %143
 E,24 | F,24 | D,24 | E,24 | A,,8 D,8 D,8 | ^C,8 C,4 A,,4 B,,4 C,4 | D,8 D,8 D,8 | %150
 ^C,8 C,4 A,,4 B,,4 C,4 | D,16 D,8 | A,24 | D,24 | A,24 | D,24 | G,,16 G,,8 | A,,24 | %158
[M:2/2] D,2 D,D, G,G,C,C, | F,F,G,>G, A,G, A,2 | D,2 D,D, G,,2 _B,,2 | A,,8 | D,8- | D,8 |] %164
V:4
 D,2 C,2 _B,,2 G,,2 | A,,2 G,,2 F,,2 G,,2 | A,,4 D,4 | ^C,2 D,2 E,2 D,2 | ^C,2 D,2 E,4 | %5
 A,,A,G,E, D,2 G,2 | E,A,G,E, D,2 F,G, | A,4 D,4 | B,,2 G,,2 C,4 | A,,4 A,2 F,2 | D,2 G,,2 A,,4 | %11
 D,4 z2 D,D, | D,2 B,,2 C,2 D,2 | G,,4 G,,2 G,G, | G,2 E,2 F,2 G,2 | C,4 C,4 | F,4 D,4 | %17
 G,4 C,2 A,,2 | D,4 B,,2 C,2 | D,2 E,2 A,,4 | A,4 _B,4 | A,2 G,2 F,2 E,2 | F,2 _B,,2 C,4 | %23
 F,2 E,2 D,2 ^C,2 | D,2 _B,,2 G,,2 A,,2 | D,4 D3 _B, | C3 A, _B,2 C2 | F,4 F,4 | F,6 E,2 | %29
 D,6 E,F, | G,6 F,2 | E,8 | F,2 D,2 E,2 A,,2 | D,2 _B,,2 C,2 A,,2 | _B,,2 G,,2 A,,4 | D,,8 | %36
 D,4 C,4 | _B,,4 C,4 | F,,4 C,2 D,2 | A,,2 G,,2 F,,2 G,,2 | A,,2 _B,,2 G,,2 A,,2 | D,4 A,,4 | %42
 D,,4 E,,4 | A,,2 A,2 G,2 F,2 | E,2 C,2 B,,2 A,,2 | G,,2 G,2 F,2 E,2 | D,2 B,,2 A,,2 F,,2 | %47
 E,,E,F,G, A,2 G,2 | F,2 E,D, E,2 C,2 | D,2 E,2 A,,2 A,2- | A,A, F,2 E,2 C,2- | C,C, A,,2 G,,4 | %52
 G,4 E,D,E,C, | G,4 C,4 | G,2 A,B, C4 | A,4 ^F,2 D,2 | D,4 B,,2 G,,2 | G,2 E,2 C,2 E,,2 | G,,8 | %59
 C,8 | A,,8- | A,,8 | A,,8 | A,,4 F,,4 | E,,8 |[M:6/2] E,24 | E,24 | E,24 | E,24 | ^C,24 | A,,24 | %71
 A,,24 | A,,24 |[M:2/2] A,,4 G,,4 | F,,8 | ^C,4 D,4 | D,4 A,,4 | _B,,4 G,,4 | A,,4 _B,,2 G,,2 | %79
 A,,4 D,,4 | D,4 B,,4 | z2 B,,B,, G,,4 | G,4 E,3 D, | C,2 A,,2 B,,4 | E,,8 |[M:6/2] E,24 | E,24 | %87
 E,24 | E,24 | ^C,24 | A,,24 | A,24 | A,,24 | z24 |[M:2/2] z A,,A,,B,, ^C,3 D, | E,3 ^C, D,3 A,, | %96
 E,8 | A,,8 | D,8 | D,3 E, F,2 E,D, | A,4 A,4 | ^F,2 D,2 G,G,G,G, | E,4 C,4 | F,4 _B,2 G,A, | %104
 D,D,D,D, B,,4 | G,,4 C,2 A,,2 | D,2 B,,2 E,2 D,E, | A,,A,A,A, ^F,4 | D,4 G,,2 C,2 | %109
 A,,4 D,D,D,D, | B,,4 C,2 D,2 | G,,8 | G,4 A,2 ^F,2 | G,4 E,4 | ^F,4 D,2 E,2 | A,,4 D,4 | %116
 G,4 A,2 ^F,2 | G,4 ^C,2 A,,2 | D,4 E,4 | A,,2 A,2 G,3 F,/E,/ | F,3 E,/D,/ E,3 D,/C,/ | %121
 D,4 z B,,B,,B,, | C,2 D,2 G,,2 z G, | C,2 z C, A,,2 z A,, | G,,3 A,, B,,2 C,2 | D,4 G,,4 | %126
 G,4 E,4 | E,4 ^C,4 | z2 D,C, B,,2 ^F,,G,, | A,,4 D,,4 | D,4 ^C,4 | D,4 ^F,D,E,F, | %132
 G,4 ^G,E,^F,G, | A,4 D,2 E,F, | G,4 C,4 |[M:6/2] C,24 | B,,12 G,,4 A,,4 B,,4 | C,24 | D,24 | %139
 G,,24 | A,,24 | ^F,24 | G,24 | E,24 | F,24 | D,24 | E,24 | A,,8 D,8 D,8 | ^C,12 A,,4 B,,4 C,4 | %149
 D,16 D,8 | ^C,12 A,,4 B,,4 C,4 | D,24 | A,24 | D,24 | A,24 | D,24 | G,,24 | A,,24 | %158
[M:2/2] D,4 G,2 C,2 | F,2 G,2 A,G, A,2 | D,4 G,,2 _B,,2 | A,,8 | D,8- | D,8 |] %164

